X:1
T:Murray’s Chant, LM
T:Murray’s Chant, LM
T:Philip Paul Bliss, 1874
T:Public Domain Courtesy of the Cyber Hymnal™
C:Philip Paul Bliss, 1874
Z:Public Domain
Z:Courtesy of the Cyber Hymnal™
%%score ( 1 2 ) ( 3 4 )
L:1/8
Q:1/4=110
M:4/4
K:E
V:1 treble 
V:2 treble 
V:3 bass 
V:4 bass 
V:1
 [EG]2 | [EG]2 [EG]2 [EG]2 [EG]2 | [DA]4 [EG]4 | [DF]6 [CE]2 | [CE]2 [CE]2 [CE]2 [CE]2 | %5
 [EG]4 [DF]4 | [EG]6 [EB]2 | [EB]2 [EB]2 [EB]2 [EB]2 | [Ec]4 [EB]4 | [DA]6 [DF]2 | %10
 [DF]2 [DF]2 [EB]2 [FA]2 | [EG]4 [DF]4 x2 | !fermata!E6 |] %13
V:2
 x2 | x8 | x8 | x8 | x8 | x8 | x8 | x8 | x8 | x8 | x8 | x10 | E6 |] %13
V:3
 [E,B,]2 | [E,B,]2 [E,B,]2 [E,B,]2 [E,B,]2 | [F,B,]4 [E,B,]4 | [B,,B,]6 [C,G,]2 | %4
 [C,G,]2 [C,G,]2 [C,G,]2 [C,G,]2 | [B,,B,]4 [B,,B,]4 | [E,B,]6 [E,G,]2 | %7
 [E,G,]2 [E,G,]2 [E,G,]2 [E,G,]2 | A,4 [G,B,]4 | [F,B,]6 [B,,B,]2 | %10
 [B,,B,]2 [A,,B,]2 [G,,B,]2 [A,,C]2 | B,6 z2 A,2 | !fermata![E,G,]6 |] %13
V:4
 x2 | x8 | x8 | x8 | x8 | x8 | x8 | x8 | A,4 x4 | x8 | x8 | B,,4 B,,4 x2 | x6 |] %13

